app/assets/images/icons/active/male.svg

<?xml version="1.0" encoding="UTF-8" standalone="no"?>
<svg width="32px" height="232px" viewBox="0 0 32 232" version="1.1" xmlns="http://www.w3.org/2000/svg" xmlns:xlink="http://www.w3.org/1999/xlink" xmlns:sketch="http://www.bohemiancoding.com/sketch/ns">
    <title>male</title>
    <description>Created with Sketch (http://www.bohemiancoding.com/sketch)</description>
    <defs></defs>
    <g id="Graphics" stroke="none" stroke-width="1" fill="none" fill-rule="evenodd" sketch:type="MSPage">
        <path d="M27.5,125 L17.7024906,125 L17.7024906,127.615154 L22.9665326,127.615154 L19.0691071,131.512711 C17.4599933,130.320734 15.5549506,129.715498 13.6447702,129.715498 C11.3030267,129.715498 8.96231083,130.608453 7.17646172,132.394362 C3.60784609,135.963097 3.60784609,141.750346 7.17646172,145.323192 C8.96231083,147.109101 11.3030267,148 13.6447702,148 C15.9824035,148 18.3231195,147.109101 20.1089686,145.323192 C23.3498018,142.080195 23.6375105,137.010186 20.9875077,133.431175 L24.8890434,129.532592 L24.8869883,134.79681 L27.5,134.79681 L27.5,125 L27.5,125 L27.5,125 L27.5,125 Z M17.2565421,142.47067 C16.2916904,143.436581 15.0072765,143.970915 13.6447702,143.970915 C12.2781538,143.970915 10.9937399,143.436581 10.0299157,142.47067 C9.06506394,141.505786 8.53280281,140.223384 8.53280281,138.858777 C8.53280281,137.49417 9.06506394,136.209713 10.0299157,135.243801 C10.9937399,134.278917 12.2781538,133.748693 13.6447702,133.748693 C15.0072765,133.748693 16.2916904,134.278917 17.2565421,135.243801 C18.2224214,136.209713 18.7526275,137.49417 18.7526275,138.858777 C18.7526275,140.223384 18.2224214,141.505786 17.2565421,142.47067 L17.2565421,142.47067 Z M17.2565421,142.47067" id="male--white" fill="#206FAC" sketch:type="MSShapeGroup"></path>
        <path d="M27.5,85 L17.7024906,85 L17.7024906,87.6151544 L22.9665326,87.6151544 L19.0691071,91.5127105 C17.4599933,90.3207345 15.5549506,89.7154984 13.6447702,89.7154984 C11.3030267,89.7154984 8.96231083,90.6084528 7.17646172,92.3943618 C3.60784609,95.963097 3.60784609,101.750346 7.17646172,105.323192 C8.96231083,107.109101 11.3030267,108 13.6447702,108 C15.9824035,108 18.3231195,107.109101 20.1089686,105.323192 C23.3498018,102.080195 23.6375105,97.0101863 20.9875077,93.4311754 L24.8890434,89.5325917 L24.8869883,94.7968101 L27.5,94.7968101 L27.5,85 L27.5,85 L27.5,85 L27.5,85 Z M17.2565421,102.47067 C16.2916904,103.436581 15.0072765,103.970915 13.6447702,103.970915 C12.2781538,103.970915 10.9937399,103.436581 10.0299157,102.47067 C9.06506394,101.505786 8.53280281,100.223384 8.53280281,98.8587768 C8.53280281,97.4941697 9.06506394,96.2097127 10.0299157,95.2438011 C10.9937399,94.278917 12.2781538,93.7486932 13.6447702,93.7486932 C15.0072765,93.7486932 16.2916904,94.278917 17.2565421,95.2438011 C18.2224214,96.2097127 18.7526275,97.4941697 18.7526275,98.8587768 C18.7526275,100.223384 18.2224214,101.505786 17.2565421,102.47067 L17.2565421,102.47067 Z M17.2565421,102.47067" id="male--subdued-grey" fill="#FFFFFF" sketch:type="MSShapeGroup"></path>
        <path d="M27.5,45 L17.7024906,45 L17.7024906,47.6151544 L22.9665326,47.6151544 L19.0691071,51.5127105 C17.4599933,50.3207345 15.5549506,49.7154984 13.6447702,49.7154984 C11.3030267,49.7154984 8.96231083,50.6084528 7.17646172,52.3943618 C3.60784609,55.963097 3.60784609,61.7503462 7.17646172,65.3231917 C8.96231083,67.1091007 11.3030267,68 13.6447702,68 C15.9824035,68 18.3231195,67.1091007 20.1089686,65.3231917 C23.3498018,62.0801948 23.6375105,57.0101863 20.9875077,53.4311754 L24.8890434,49.5325917 L24.8869883,54.7968101 L27.5,54.7968101 L27.5,45 L27.5,45 L27.5,45 L27.5,45 Z M17.2565421,62.4706697 C16.2916904,63.4365813 15.0072765,63.9709154 13.6447702,63.9709154 C12.2781538,63.9709154 10.9937399,63.4365813 10.0299157,62.4706697 C9.06506394,61.5057856 8.53280281,60.2233838 8.53280281,58.8587768 C8.53280281,57.4941697 9.06506394,56.2097127 10.0299157,55.2438011 C10.9937399,54.278917 12.2781538,53.7486932 13.6447702,53.7486932 C15.0072765,53.7486932 16.2916904,54.278917 17.2565421,55.2438011 C18.2224214,56.2097127 18.7526275,57.4941697 18.7526275,58.8587768 C18.7526275,60.2233838 18.2224214,61.5057856 17.2565421,62.4706697 L17.2565421,62.4706697 Z M17.2565421,62.4706697" id="male--body-grey" fill="#67737B" sketch:type="MSShapeGroup"></path>
        <path d="M27.5,5 L17.7024906,5 L17.7024906,7.61515436 L22.9665326,7.61515436 L19.0691071,11.5127105 C17.4599933,10.3207345 15.5549506,9.71549837 13.6447702,9.71549837 C11.3030267,9.71549837 8.96231083,10.6084528 7.17646172,12.3943618 C3.60784609,15.963097 3.60784609,21.7503462 7.17646172,25.3231917 C8.96231083,27.1091007 11.3030267,28 13.6447702,28 C15.9824035,28 18.3231195,27.1091007 20.1089686,25.3231917 C23.3498018,22.0801948 23.6375105,17.0101863 20.9875077,13.4311754 L24.8890434,9.5325917 L24.8869883,14.7968101 L27.5,14.7968101 L27.5,5 L27.5,5 L27.5,5 L27.5,5 Z M17.2565421,22.4706697 C16.2916904,23.4365813 15.0072765,23.9709154 13.6447702,23.9709154 C12.2781538,23.9709154 10.9937399,23.4365813 10.0299157,22.4706697 C9.06506394,21.5057856 8.53280281,20.2233838 8.53280281,18.8587768 C8.53280281,17.4941697 9.06506394,16.2097127 10.0299157,15.2438011 C10.9937399,14.278917 12.2781538,13.7486932 13.6447702,13.7486932 C15.0072765,13.7486932 16.2916904,14.278917 17.2565421,15.2438011 C18.2224214,16.2097127 18.7526275,17.4941697 18.7526275,18.8587768 C18.7526275,20.2233838 18.2224214,21.5057856 17.2565421,22.4706697 L17.2565421,22.4706697 Z M17.2565421,22.4706697" id="male--title-grey" fill="#3A434E" sketch:type="MSShapeGroup"></path>
    </g>
</svg>

<svg width="32" height="232" viewBox="0 0 32 232" xmlns="http://www.w3.org/2000/svg" xmlns:sketch="http://www.bohemiancoding.com/sketch/ns"><title>male</title><g sketch:type="MSPage" fill="none"><path d="M27.5 125h-9.798v2.615h5.264l-3.897 3.898c-1.609-1.192-3.514-1.797-5.424-1.797-2.342 0-4.682.893-6.468 2.679-3.569 3.569-3.569 9.356 0 12.929 1.786 1.786 4.127 2.677 6.468 2.677 2.338 0 4.678-.891 6.464-2.677 3.241-3.243 3.529-8.313.879-11.892l3.902-3.899-.002 5.264h2.613v-9.797zm-10.243 17.471c-.965.966-2.249 1.5-3.612 1.5-1.367 0-2.651-.534-3.615-1.5-.965-.965-1.497-2.247-1.497-3.612 0-1.365.532-2.649 1.497-3.615.964-.965 2.248-1.495 3.615-1.495 1.363 0 2.647.53 3.612 1.495.966.966 1.496 2.25 1.496 3.615 0 1.365-.53 2.647-1.496 3.612zm0 0" fill="#206FAC" sketch:type="MSShapeGroup"/><path d="M27.5 85h-9.798v2.615h5.264l-3.897 3.898c-1.609-1.192-3.514-1.797-5.424-1.797-2.342 0-4.682.893-6.468 2.679-3.569 3.569-3.569 9.356 0 12.929 1.786 1.786 4.127 2.677 6.468 2.677 2.338 0 4.678-.891 6.464-2.677 3.241-3.243 3.529-8.313.879-11.892l3.902-3.899-.002 5.264h2.613v-9.797zm-10.243 17.471c-.965.966-2.249 1.5-3.612 1.5-1.367 0-2.651-.534-3.615-1.5-.965-.965-1.497-2.247-1.497-3.612 0-1.365.532-2.649 1.497-3.615.964-.965 2.248-1.495 3.615-1.495 1.363 0 2.647.53 3.612 1.495.966.966 1.496 2.25 1.496 3.615 0 1.365-.53 2.647-1.496 3.612zm0 0" fill="#fff" sketch:type="MSShapeGroup"/><path d="M27.5 45h-9.798v2.615h5.264l-3.897 3.898c-1.609-1.192-3.514-1.797-5.424-1.797-2.342 0-4.682.893-6.468 2.679-3.569 3.569-3.569 9.356 0 12.929 1.786 1.786 4.127 2.677 6.468 2.677 2.338 0 4.678-.891 6.464-2.677 3.241-3.243 3.529-8.313.879-11.892l3.902-3.899-.002 5.264h2.613v-9.797zm-10.243 17.471c-.965.966-2.249 1.5-3.612 1.5-1.367 0-2.651-.534-3.615-1.5-.965-.965-1.497-2.247-1.497-3.612 0-1.365.532-2.649 1.497-3.615.964-.965 2.248-1.495 3.615-1.495 1.363 0 2.647.53 3.612 1.495.966.966 1.496 2.25 1.496 3.615 0 1.365-.53 2.647-1.496 3.612zm0 0" fill="#67737B" sketch:type="MSShapeGroup"/><path d="M27.5 5h-9.798v2.615h5.264l-3.897 3.898c-1.609-1.192-3.514-1.797-5.424-1.797-2.342 0-4.682.893-6.468 2.679-3.569 3.569-3.569 9.356 0 12.929 1.786 1.786 4.127 2.677 6.468 2.677 2.338 0 4.678-.891 6.464-2.677 3.241-3.243 3.529-8.313.879-11.892l3.902-3.899-.002 5.264h2.613v-9.797zm-10.243 17.471c-.965.966-2.249 1.5-3.612 1.5-1.367 0-2.651-.534-3.615-1.5-.965-.965-1.497-2.247-1.497-3.612 0-1.365.532-2.649 1.497-3.615.964-.965 2.248-1.495 3.615-1.495 1.363 0 2.647.53 3.612 1.495.966.966 1.496 2.25 1.496 3.615 0 1.365-.53 2.647-1.496 3.612zm0 0" fill="#3A434E" sketch:type="MSShapeGroup"/></g></svg>
